X:046 
T:Duffy's Reel 
S:Donnelly < W.Jones
F:file ID: cre.4/046duffy
B:CRE4.171 (Ril Ui Dhufaigh)
Q:180
L:1/8
M:4/4
R:reel
K:Bm
de|fB~B2 Bcde|faed cdeg|fB~B2 Bcdf|ecac B2ag|
fB~B2 Bcde|faed cdeg|fB (3cBA Bcdf|ecac B2||
BA|FABc dcdA|FABd cABA|FABc dcdf|ecac B2BA|
FABc dcdA|FABd cABc|d2 fd cdec|B2BA B4||

%%%

